X: 1
T: Nóra Críona
R: Jig
C: Irish Traditional
M: 6/8
L: 1/8
K: G
!lroll!G3 !cut!G2A | B2G d2B | !lroll!G3 !cut!GAB | !sroll!A2B cBA |
!lroll!G3 !cut!G2A | B2G d2B | !sroll!A2f !cut!fef | !sroll!A2B cBA :|
|: ded !cut!!breath!d2c | B2cd2B | ded !cut!d2B | !sroll!A2 B cBA | 
ded !cut!!breath!d2c | !cut!BAG !cut!ABC | !sroll!A f!cut!fef | !sroll!A2 B cBA :|

